X:21
T:La Bell Catherine. GS.021
T:Lady Belle Catherine,aka. GS.021
T:Shrewsbury Quarry,aka. GS.021
T:Come Let Us Sing And Dance,aka. GS.021
M:2/4
L:1/8
Q:1/4=100
S:George Spencer m/s, Leeds,1831
R:.Country-dance
O:England
A:Leeds
N:Occurs in the Thomas Hardy tunebook under â€˜Selected tunes from â€˜The
N:Entire and Compleat Tutor for the Violinâ€™ by Geminiani (Hardy Family)
N:Collectionâ€™, alt. title â€˜Come let us sing and Dance â€“ and in Ironbridge
N:Hornpipe, recognisably the same thoâ€™ different in detail, alt. title.
N:â€™Shrewsbury Quarryâ€“ Pa â€“ pause, conventional sign used.
H:1831
Z:vmp.Cherri Graebe
K:D major
z|d2 (f/2e/2).d/2.e/2 | fddB | B2 (e/2f/2).e/2.d/2 | cA A2 |!
d2 (f/2e/2).d/2.e/2 |fd dB | Bedc | d2d :||!
A/2G/2 | FA AG | FA AG | FA (d/2f/2).e/2.d/2 | cA A (A/2G/2) |!
FA A (B/2c/2) | .d(f/2d/2) .c(e/2c/2) |\
.d(f/2e/2) .f(e/2d/2) | Ha2 â€œD. Capoâ€A |]

